resources/icons/16px/floating-point.svg

<svg width="16" height="16" viewBox="0 0 16 16" fill="none" xmlns="http://www.w3.org/2000/svg">
<path fill-rule="evenodd" clip-rule="evenodd" d="M1 5.32571C1.27429 5.32571 1.54095 5.30286 1.8 5.25714C2.05905 5.21143 2.29143 5.13524 2.49714 5.02857C2.71048 4.92191 2.88952 4.78476 3.03429 4.61714C3.18667 4.44952 3.28571 4.24381 3.33143 4H4.39429V12H2.96571V6.35429H1V5.32571ZM12.172 4.01001C12.722 4.01001 13.1693 4.13834 13.514 4.39501C13.866 4.64434 14.1373 4.96701 14.328 5.36301C14.526 5.75168 14.658 6.18068 14.724 6.65001C14.7973 7.11934 14.834 7.57401 14.834 8.01401C14.834 8.45401 14.7973 8.90868 14.724 9.37801C14.658 9.84734 14.526 10.28 14.328 10.676C14.1373 11.0647 13.866 11.3873 13.514 11.644C13.1693 11.8933 12.722 12.018 12.172 12.018C11.622 12.018 11.171 11.8933 10.819 11.644C10.4743 11.3873 10.203 11.0647 10.005 10.676C9.81434 10.28 9.68234 9.84734 9.609 9.37801C9.543 8.90868 9.51 8.45401 9.51 8.01401C9.51 7.57401 9.543 7.11934 9.609 6.65001C9.68234 6.18068 9.81434 5.75168 10.005 5.36301C10.203 4.96701 10.4743 4.64434 10.819 4.39501C11.171 4.13834 11.622 4.01001 12.172 4.01001ZM12.172 10.973C12.4433 10.973 12.6707 10.896 12.854 10.742C13.0373 10.5807 13.1803 10.368 13.283 10.104C13.393 9.83268 13.47 9.51734 13.514 9.15801C13.558 8.79868 13.58 8.41734 13.58 8.01401C13.58 7.61068 13.558 7.23301 13.514 6.88101C13.47 6.52168 13.393 6.20634 13.283 5.93501C13.1803 5.66368 13.0373 5.45101 12.854 5.29701C12.6707 5.13568 12.4433 5.05501 12.172 5.05501C11.8933 5.05501 11.6623 5.13568 11.479 5.29701C11.303 5.45101 11.16 5.66368 11.05 5.93501C10.9473 6.20634 10.874 6.52168 10.83 6.88101C10.786 7.23301 10.764 7.61068 10.764 8.01401C10.764 8.41734 10.786 8.79868 10.83 9.15801C10.874 9.51734 10.9473 9.83268 11.05 10.104C11.16 10.368 11.303 10.5807 11.479 10.742C11.6623 10.896 11.8933 10.973 12.172 10.973ZM8.08857 10.5H6.5V12.0429H8.08857V10.5Z" fill="black"/>
</svg>

<svg xmlns="http://www.w3.org/2000/svg" viewBox="0 0 16 16">
  <path d="M1 5.326q.411 0 .8-.069.388-.069.697-.228a1.7 1.7 0 0 0 .537-.412q.23-.25.297-.617h1.063v8H2.966V6.354H1zM12.172 4.01q.825 0 1.342.385.528.375.814.968.297.583.396 1.287.11.704.11 1.364t-.11 1.364q-.099.704-.396 1.298-.285.583-.814.968-.517.375-1.342.374-.825 0-1.353-.374a2.74 2.74 0 0 1-.814-.968 4.6 4.6 0 0 1-.396-1.298 10 10 0 0 1-.099-1.364q0-.66.099-1.364.11-.704.396-1.287.297-.594.814-.968.528-.385 1.353-.385m0 6.963q.407 0 .682-.231.274-.242.429-.638.165-.407.231-.946t.066-1.144-.066-1.133a3.7 3.7 0 0 0-.231-.946 1.5 1.5 0 0 0-.429-.638 1 1 0 0 0-.682-.242q-.418 0-.693.242a1.66 1.66 0 0 0-.429.638 4 4 0 0 0-.22.946q-.066.528-.066 1.133t.066 1.144.22.946q.165.396.429.638.274.231.693.231M8.089 10.5H6.5v1.543h1.589z"/>
</svg>
